X: 34459
T: Ridee
R: waltz
M: 3/4
K: Eminor
"Em" EB AG FG|"A7" A2 GF ED|"Em" EB AG FG|1 "A7" AF A2 GF:|2 "A7" A2 GF E2||
"G" G2 FD G2|FD EF GB|"Am" A2 GB AF|1 A2 GF EF:|2 A2 GF ED||

